fs/textbox_rotate_90_24_regular.svg

<svg viewBox="0 0 24 24" fill="none" xmlns="http://www.w3.org/2000/svg" height="1em" width="1em">
  <path d="M21 18.25C21 19.7688 19.7688 21 18.25 21H5.75C4.23122 21 3 19.7688 3 18.25L3 5.75C3 4.23122 4.23122 3 5.75 3L18.25 3C19.7688 3 21 4.23122 21 5.75V18.25ZM19.5 18.25V5.75C19.5 5.05964 18.9404 4.5 18.25 4.5L5.75 4.5C5.05964 4.5 4.5 5.05964 4.5 5.75L4.5 18.25C4.5 18.9404 5.05964 19.5 5.75 19.5H18.25C18.9404 19.5 19.5 18.9404 19.5 18.25ZM12.5 14.25L12.5 6.75L12.4932 6.64823C12.4435 6.28215 12.1297 6 11.75 6C11.3358 6 11 6.33579 11 6.75L11 14.25L11.0068 14.3518C11.0565 14.7178 11.3703 15 11.75 15C12.1642 15 12.5 14.6642 12.5 14.25ZM8.5 6.75L8.5 17.25C8.5 17.6642 8.16421 18 7.75 18C7.3703 18 7.05651 17.7178 7.00685 17.3518L7 17.25L7 6.75C7 6.33579 7.33579 6 7.75 6C8.1297 6 8.44349 6.28215 8.49315 6.64823L8.5 6.75ZM16.5 17.25L16.5 6.75L16.4932 6.64823C16.4435 6.28215 16.1297 6 15.75 6C15.3358 6 15 6.33579 15 6.75L15 17.25L15.0068 17.3518C15.0565 17.7178 15.3703 18 15.75 18C16.1642 18 16.5 17.6642 16.5 17.25Z" fill="#212121"/>
</svg>

<svg viewBox="0 0 24 24" fill="none" xmlns="http://www.w3.org/2000/svg" height="1em" width="1em">
  <path d="M21 18.25A2.75 2.75 0 0 1 18.25 21H5.75A2.75 2.75 0 0 1 3 18.25V5.75A2.75 2.75 0 0 1 5.75 3h12.5A2.75 2.75 0 0 1 21 5.75v12.5Zm-1.5 0V5.75c0-.69-.56-1.25-1.25-1.25H5.75c-.69 0-1.25.56-1.25 1.25v12.5c0 .69.56 1.25 1.25 1.25h12.5c.69 0 1.25-.56 1.25-1.25Zm-7-4v-7.5l-.007-.102A.75.75 0 0 0 11 6.75v7.5l.007.102a.75.75 0 0 0 1.493-.102Zm-4-7.5v10.5a.75.75 0 0 1-1.493.102L7 17.25V6.75a.75.75 0 0 1 1.493-.102l.007.102Zm8 10.5V6.75l-.007-.102A.75.75 0 0 0 15 6.75v10.5l.007.102a.75.75 0 0 0 1.493-.102Z" fill="#212121"/>
</svg>
